assets/images/viber.svg

<svg width="21" height="22" viewBox="0 0 21 22" fill="none" xmlns="http://www.w3.org/2000/svg">
<path d="M15.8538 0.522178C12.2299 -0.174059 8.4666 -0.174059 4.84268 0.522178C3.2398 0.870297 1.21877 2.81976 0.870315 4.35149C0.243098 7.34531 0.243098 10.4088 0.870315 13.4026C1.28846 14.9343 3.30949 16.8838 4.84268 17.2319C4.91237 17.2319 4.98206 17.3015 4.98206 17.3711V21.7574C4.98206 21.9663 5.26083 22.1055 5.40021 21.8967L7.49093 19.7383C7.49093 19.7383 9.16351 17.9977 9.44227 17.7193C9.44227 17.7193 9.51196 17.6496 9.58165 17.6496C11.6724 17.7193 13.8328 17.5104 15.9235 17.1623C17.5264 16.8141 19.5474 14.8647 19.8959 13.333C20.5231 10.3391 20.5231 7.27568 19.8959 4.28186C19.4777 2.81976 17.4567 0.870297 15.8538 0.522178ZM15.9235 13.6114C15.5751 14.3077 15.1569 14.8647 14.46 15.2128C14.2509 15.2824 14.0419 15.352 13.8328 15.4217C13.554 15.352 13.345 15.2824 13.1359 15.2128C10.9058 14.3077 8.81506 13.0545 7.14248 11.2442C6.2365 10.1999 5.4699 9.01628 4.84268 7.76305C4.56392 7.13644 4.28516 6.57945 4.07609 5.95283C3.86701 5.39584 4.21547 4.83885 4.56392 4.42111C4.91237 4.00337 5.33052 3.72487 5.81835 3.516C6.16681 3.30713 6.51526 3.44638 6.79403 3.72487C7.35155 4.42111 7.90908 5.11735 8.32722 5.88321C8.60598 6.37058 8.53629 6.92757 8.04846 7.27568C7.90907 7.34531 7.83938 7.41493 7.7 7.55418C7.63031 7.6238 7.49093 7.69343 7.42124 7.83267C7.28186 8.04155 7.28186 8.25042 7.35155 8.45929C7.90907 10.0606 8.95443 11.3139 10.5573 12.0101C10.8361 12.1493 11.0452 12.219 11.3936 12.219C11.8814 12.1494 12.0905 11.5924 12.439 11.3139C12.7874 11.0354 13.2056 11.0354 13.6237 11.2442C13.9722 11.4531 14.3206 11.7316 14.7388 12.0101C15.0872 12.2886 15.4357 12.4975 15.7841 12.776C15.9932 12.9152 16.0629 13.2633 15.9235 13.6114ZM12.9965 8.38967C12.8571 8.38967 12.9268 8.38967 12.9965 8.38967C12.7177 8.38967 12.648 8.25042 12.5784 8.04155C12.5784 7.9023 12.5784 7.69343 12.5087 7.55418C12.439 7.27569 12.2996 6.99719 12.0208 6.78832C11.8814 6.71869 11.7421 6.64907 11.6027 6.57945C11.3936 6.50982 11.2542 6.50982 11.0452 6.50982C10.8361 6.4402 10.7664 6.30095 10.7664 6.09208C10.7664 5.95283 10.9755 5.81359 11.1148 5.81359C12.2299 5.88321 13.0662 6.50982 13.2056 7.83267C13.2056 7.9023 13.2056 8.04155 13.2056 8.11117C13.2056 8.25042 13.1359 8.38967 12.9965 8.38967ZM12.2996 5.32622C11.9511 5.18697 11.6027 5.04772 11.1845 4.9781C11.0452 4.9781 10.8361 4.90848 10.6967 4.90848C10.4876 4.90848 10.3483 4.76923 10.4179 4.56036C10.4179 4.35149 10.5573 4.21224 10.7664 4.28186C11.4633 4.35149 12.0905 4.49073 12.7177 4.76923C13.9722 5.39584 14.6691 6.4402 14.8781 7.83267C14.8781 7.9023 14.8781 7.97192 14.8781 8.04155C14.8781 8.18079 14.8781 8.32004 14.8781 8.52891C14.8781 8.59854 14.8781 8.66816 14.8781 8.73779C14.8085 9.01628 14.3206 9.0859 14.2509 8.73779C14.2509 8.66816 14.1812 8.52891 14.1812 8.45929C14.1812 7.83268 14.0419 7.20606 13.7631 6.64907C13.345 6.02246 12.8571 5.60471 12.2996 5.32622ZM16.0629 9.50365C15.8538 9.50365 15.7144 9.29478 15.7144 9.0859C15.7144 8.66816 15.6447 8.25042 15.5751 7.83267C15.2963 5.60471 13.4843 3.7945 11.3239 3.44638C10.9755 3.37675 10.627 3.37675 10.3483 3.30713C10.1392 3.30713 9.86041 3.30713 9.79072 3.02863C9.72103 2.81976 9.9301 2.61089 10.1392 2.61089C10.2089 2.61089 10.2786 2.61089 10.2786 2.61089C13.1359 2.68052 10.4179 2.61089 10.2786 2.61089C13.2056 2.68052 15.6447 4.62998 16.1326 7.55418C16.2023 8.04155 16.272 8.52891 16.272 9.0859C16.4113 9.29478 16.272 9.50365 16.0629 9.50365Z" fill="#004B98"/>
</svg>

<svg width="21" height="22" fill="none" xmlns="http://www.w3.org/2000/svg"><path d="M15.854.522a29.285 29.285 0 0 0-11.011 0C3.24.87 1.219 2.82.87 4.352a22.004 22.004 0 0 0 0 9.05c.418 1.532 2.44 3.482 3.973 3.83.07 0 .14.07.14.14v4.385c0 .21.278.348.417.14l2.09-2.159s1.674-1.74 1.952-2.019c0 0 .07-.07.14-.07 2.09.07 4.25-.139 6.341-.487 1.603-.348 3.624-2.297 3.973-3.829a22.005 22.005 0 0 0 0-9.051C19.478 2.82 17.456.87 15.854.522Zm.07 13.09c-.349.696-.767 1.253-1.464 1.6l-.627.21c-.279-.07-.488-.14-.697-.21-2.23-.904-4.32-2.157-5.994-3.968a16.75 16.75 0 0 1-2.3-3.481c-.278-.627-.557-1.184-.766-1.81-.209-.557.14-1.114.488-1.532.348-.418.767-.696 1.254-.905.349-.209.697-.07.976.209.558.696 1.115 1.392 1.533 2.158.279.488.21 1.045-.279 1.393-.139.07-.209.139-.348.278-.07.07-.21.14-.279.279-.14.209-.14.417-.07.626.558 1.602 1.603 2.855 3.206 3.551.28.14.488.209.837.209.487-.07.697-.627 1.045-.905.348-.279.767-.279 1.185-.07.348.21.697.488 1.115.766.348.279.697.488 1.045.766.21.14.279.487.14.835ZM12.995 8.39c-.139 0-.07 0 0 0-.278 0-.348-.14-.418-.348 0-.14 0-.349-.07-.488a1.324 1.324 0 0 0-.487-.766l-.418-.209c-.21-.07-.349-.07-.558-.07-.209-.069-.279-.208-.279-.417 0-.14.21-.278.349-.278 1.115.07 1.951.696 2.09 2.019v.278c0 .14-.07.279-.209.279ZM12.3 5.326c-.349-.139-.697-.278-1.116-.348-.139 0-.348-.07-.487-.07-.21 0-.349-.139-.28-.348 0-.209.14-.348.35-.278.696.07 1.324.209 1.95.487 1.255.627 1.952 1.671 2.161 3.064V8.738c-.07.278-.557.348-.627 0 0-.07-.07-.21-.07-.279 0-.626-.14-1.253-.418-1.81-.418-.627-.906-1.044-1.463-1.323Zm3.763 4.178c-.21 0-.349-.21-.349-.418 0-.418-.07-.836-.139-1.253-.279-2.228-2.09-4.038-4.251-4.387-.348-.07-.697-.07-.976-.139-.209 0-.488 0-.557-.278-.07-.21.14-.418.348-.418h.14c2.857.07.139 0 0 0 2.927.07 5.366 2.019 5.854 4.943.07.488.139.975.139 1.532.14.209 0 .418-.21.418Z" fill="#004B98"/></svg>
